X: 23
M: C
L: 1/16
K: A
(vA,3.C)(uE3.C) (D3.F)TE4 | (F3.B)(B3.c) "SEGUE"(dc).B.A (GF).E.D |\
ud2 |\
(c3.e)(A3.e) (c3.e) (dc).B.A | (GB3)E3B (GB3)E3B |\
(c3.e)"SEGUE"A3e c3e (dc).B.A | (GB3)E3G {G}"4"A4 "4"e3d |
(ce3)A3e c3e {g}a4 | (FB3)B3c (dc).B.A (GF).E.D |\


